assets/icons/fasilities.svg

<svg width="60" height="60" viewBox="0 0 60 60" fill="none" xmlns="http://www.w3.org/2000/svg">
<path fill-rule="evenodd" clip-rule="evenodd" d="M60 9.14078V25.1008L55.935 25.1013L55.9355 49.8694H59.1724V58H0.828112V49.8694H4.06501V25.1013H0V9.1413H4.06501V2.74198L55.935 2.74146V9.14078H60ZM53.6762 5.00021H6.32323V9.14039L53.6762 9.14091V5.00021ZM57.6661 11.399H2.18253V22.8421H57.6661V11.399ZM33.6508 25.1005H26.1225V31.1983H33.6508V25.1005ZM56.9133 55.7406V52.1271H3.08593V55.7406H56.9133ZM23.5626 43.7707C23.5626 45.9538 25.1439 47.7607 27.0259 47.7607H34.0267C35.9088 47.7607 37.49 45.9536 37.49 43.7707V37.0705H23.5626V43.7707ZM35.2318 49.8686H53.6008L53.6761 49.8687L53.6766 25.1006H35.9851V27.961L45.0189 27.9615V30.2201H35.9851V33.457H23.9395V25.1006H6.32332V49.944H25.7463C23.1868 49.3417 21.3048 46.7823 21.3048 43.8462V35.9414L21.3799 34.8874H39.9748C42.2334 34.8874 44.1155 36.6188 44.1155 38.7267V42.8674C44.1155 44.9754 42.3084 46.7067 39.9748 46.7067H38.9959C38.2428 48.2874 36.888 49.4921 35.2318 49.8686ZM40.1253 37.0706H39.7488V43.6963V44.3738H40.1253C41.1792 44.3738 42.0073 43.6958 42.0073 42.7925V38.6519C42.0073 37.8237 41.1792 37.0706 40.1253 37.0706ZM34.4794 18.25C34.0271 20.2828 32.1451 21.7883 29.9621 21.7883C27.7791 21.7883 25.897 20.2828 25.4449 18.25H23.4877V15.9914H25.4449C25.8971 13.9586 27.7792 12.4531 29.9621 12.4531C32.1457 12.4531 33.9521 13.9586 34.4794 15.9914H36.4366V18.25H34.4794ZM27.8542 18.2499C28.2308 19.0025 29.0589 19.5297 29.9621 19.5297C30.8653 19.5297 31.6935 19.003 32.1456 18.2499H27.8542ZM32.07 15.9163C31.6935 15.1638 30.8654 14.6366 29.9621 14.6366C29.0589 14.6366 28.2308 15.1633 27.7786 15.9163H32.07ZM15.9595 15.9163H19.1964V18.1749H15.9595V15.9163ZM43.9645 15.9163H40.7276V18.1749H43.9645V15.9163Z" fill="#967E76"/>
</svg>

<svg xmlns="http://www.w3.org/2000/svg" viewBox="0 0 60 60" id="icon" fill="currentColor">
<path fill-rule="evenodd" d="M60 9.14V25.1l-4.065.001V49.87h3.237V58H.828v-8.13h3.237V25.1H0V9.141h4.065V2.742h51.87V9.14H60ZM53.676 5H6.323v4.14h47.353V5Zm3.99 6.399H2.183v11.443h55.483V11.4ZM33.651 25.101h-7.529v6.097h7.529V25.1Zm23.262 30.64v-3.614H3.086v3.614h53.827Zm-33.35-11.97c0 2.183 1.58 3.99 3.463 3.99h7c1.883 0 3.464-1.807 3.464-3.99v-6.7H23.563v6.7Zm11.669 6.098h18.444V25.1h-17.69v2.86h9.033v2.26h-9.034v3.236H23.94V25.1H6.323v24.843h19.423c-2.56-.602-4.441-3.162-4.441-6.098V35.94l.075-1.054h18.595c2.258 0 4.14 1.732 4.14 3.84v4.14c0 2.108-1.807 3.84-4.14 3.84h-.98c-.752 1.58-2.107 2.785-3.763 3.162Zm4.893-12.798h-.376v7.303h.376c1.054 0 1.882-.678 1.882-1.582v-4.14c0-.828-.828-1.581-1.882-1.581ZM34.48 18.25c-.452 2.033-2.334 3.538-4.517 3.538-2.183 0-4.065-1.505-4.517-3.538h-1.957v-2.259h1.957c.452-2.032 2.334-3.538 4.517-3.538 2.184 0 3.99 1.506 4.517 3.538h1.958v2.259H34.48Zm-6.625 0c.377.753 1.205 1.28 2.108 1.28s1.732-.527 2.184-1.28h-4.292Zm4.216-2.334c-.377-.752-1.205-1.28-2.108-1.28s-1.731.527-2.183 1.28h4.291Zm-16.11 0h3.236v2.259H15.96v-2.259Zm28.005 0h-3.237v2.259h3.236v-2.259Z" clip-rule="evenodd"/>
</svg>
